proprietary/assets/icons/computer-en-internet/digitale-uitwisseling.svg

<svg height="64" viewBox="0 0 64 64" width="64" xmlns="http://www.w3.org/2000/svg"><path d="m0 0h64v64h-64z" fill="none"/><path d="m21.0963 21.3872v1.0552c.5518-.0957.9712-.1318 1.5352-.1318v4.6894h1.355v-5.9365h-.7554c-.6836 0-1.4033.1079-2.1348.3237z"/><path d="m28.6183 20.9551c-1.5474 0-2.8423 1.2236-2.8423 3.1904 0 2.0269 1.0791 2.9624 2.6865 2.9624 1.5229 0 2.8423-1.2114 2.8423-3.1782 0-1.9429-1.1152-2.9746-2.6865-2.9746zm-.0718 5.0014c-.8516 0-1.4272-.5156-1.4272-1.8828 0-1.2236.5996-1.9673 1.415-1.9673.8755 0 1.4272.5879 1.4272 1.8472 0 1.2832-.6118 2.0029-1.415 2.0029z"/><path d="m32.088 21.3872v1.0552c.5518-.0957.9712-.1318 1.5352-.1318v4.6894h1.355v-5.9365h-.7554c-.6836 0-1.4033.1079-2.1348.3237z"/><path d="m39.61 20.9551c-1.5474 0-2.8423 1.2236-2.8423 3.1904 0 2.0269 1.0791 2.9624 2.6865 2.9624 1.5229 0 2.8423-1.2114 2.8423-3.1782 0-1.9429-1.1152-2.9746-2.6865-2.9746zm-.0718 5.0014c-.8516 0-1.4272-.5156-1.4272-1.8828 0-1.2236.5996-1.9673 1.415-1.9673.8755 0 1.4272.5879 1.4272 1.8472 0 1.2832-.6118 2.0029-1.415 2.0029z"/><path d="m21.1803 32.1455c0 2.0269 1.0791 2.9624 2.6865 2.9624 1.5229 0 2.8423-1.2114 2.8423-3.1782 0-1.9429-1.1152-2.9746-2.6865-2.9746-1.5474 0-2.8423 1.2236-2.8423 3.1904zm4.1855-.1919c0 1.2832-.6118 2.0029-1.415 2.0029-.8516 0-1.4272-.5156-1.4272-1.8828 0-1.2236.5996-1.9673 1.415-1.9673.8755 0 1.4272.5879 1.4272 1.8472z"/><path d="m30.3824 35v-5.9365h-.7554c-.6836 0-1.4033.1079-2.1348.3237v1.0552c.5518-.0957.9712-.1318 1.5352-.1318v4.6894z"/><path d="m32.172 32.1455c0 2.0269 1.0791 2.9624 2.6865 2.9624 1.5229 0 2.8423-1.2114 2.8423-3.1782 0-1.9429-1.1152-2.9746-2.6865-2.9746-1.5474 0-2.8423 1.2236-2.8423 3.1904zm4.1855-.1919c0 1.2832-.6118 2.0029-1.415 2.0029-.8516 0-1.4272-.5156-1.4272-1.8828 0-1.2236.5996-1.9673 1.415-1.9673.8755 0 1.4272.5879 1.4272 1.8472z"/><path d="m41.3741 35v-5.9365h-.7554c-.6836 0-1.4033.1079-2.1348.3237v1.0552c.5518-.0957.9712-.1318 1.5352-.1318v4.6894z"/><path d="m21.0963 38.4424c.5518-.0957.9712-.1318 1.5352-.1318v4.6894h1.355v-5.9365h-.7554c-.6836 0-1.4033.1079-2.1348.3237z"/><path d="m25.776 40.1455c0 2.0269 1.0791 2.9624 2.6865 2.9624 1.5229 0 2.8423-1.2114 2.8423-3.1782 0-1.9429-1.1152-2.9746-2.6865-2.9746-1.5474 0-2.8423 1.2236-2.8423 3.1904zm2.7583-2.0391c.8755 0 1.4272.5879 1.4272 1.8472 0 1.2832-.6118 2.0029-1.415 2.0029-.8516 0-1.4272-.5156-1.4272-1.8828 0-1.2236.5996-1.9673 1.415-1.9673z"/><path d="m32.088 38.4424c.5518-.0957.9712-.1318 1.5352-.1318v4.6894h1.355v-5.9365h-.7554c-.6836 0-1.4033.1079-2.1348.3237z"/><path d="m36.7677 40.1455c0 2.0269 1.0791 2.9624 2.6865 2.9624 1.5229 0 2.8423-1.2114 2.8423-3.1782 0-1.9429-1.1152-2.9746-2.6865-2.9746-1.5474 0-2.8423 1.2236-2.8423 3.1904zm2.7583-2.0391c.8755 0 1.4272.5879 1.4272 1.8472 0 1.2832-.6118 2.0029-1.415 2.0029-.8516 0-1.4272-.5156-1.4272-1.8828 0-1.2236.5996-1.9673 1.415-1.9673z"/><path d="m51.4601 38.4077c-2.6984 8.1723-10.3953 14.0923-19.4601 14.0923-10.6876 0-19.798-8.2983-20.4393-19.3011.0485-.0458.1397-.0444.2493.132.1625.2618 1.0245 2.6849 1.0757 2.8292l2.7529 1.6225c.6578.3889 1.4984.2437 1.9912-.3378.493-.5833.4936-1.4366.0012-2.0199l-6.8933-8.1824c-.3062-.364-.7618-.569-1.2377-.5567-.4759-.0123-.9315.1927-1.2377.5567l-6.8933 8.1825c-.4924.5833-.4919 1.4366.0012 2.0199.4929.5815 1.3334.7266 1.9912.3378l3.4189-2.015c1.8268 12.2802 12.4392 21.7323 25.2197 21.7323 11.4647 0 21.1843-7.6064 24.3833-18.0369-1.4718.8964-3.3682.7906-4.9232-1.0554z"/><path d="m62.6299 27.2405c-.4929-.5815-1.3334-.7267-1.9912-.3378l-3.3377 1.9671c-1.5489-12.5883-12.3008-22.3698-25.301-22.3698-11.7655 0-21.6907 8.0119-24.619 18.8649 1.4092-1.0162 3.5554-.9909 4.9971.7207 2.5455-8.428 10.3747-14.5856 19.6219-14.5856 11.0598 0 20.1918 8.8326 20.4737 19.9804-.047.0536-.1432.0607-.2535-.131-.1353-.2352-.7562-2.1653-.9344-2.7232l-2.9244-1.7236c-.6578-.3889-1.4984-.2437-1.9912.3378-.493.5833-.4936 1.4366-.0012 2.0199l6.8933 8.1824c.3062.364.7618.569 1.2377.5568.4759.0123.9315-.1928 1.2377-.5568l6.8933-8.1824c.4925-.5832.4919-1.4365-.0011-2.0198z"/></svg>

<?xml version="1.0" encoding="utf-8"?>
<!-- Generator: Adobe Illustrator 19.1.0, SVG Export Plug-In . SVG Version: 6.00 Build 0)  -->
<svg version="1.2" baseProfile="tiny" xmlns="http://www.w3.org/2000/svg" xmlns:xlink="http://www.w3.org/1999/xlink" x="0px"
	 y="0px" width="64px" height="64px" viewBox="0 0 64 64" xml:space="preserve">
<g id="_x36_4px_Box">
	<rect fill="none" width="64" height="64"/>
</g>
<g id="Icon">
	<g>
		<path d="M21.0963,21.3872v1.0552c0.5518-0.0957,0.9712-0.1318,1.5352-0.1318V27h1.355v-5.9365h-0.7554
			C22.5475,21.0635,21.8278,21.1714,21.0963,21.3872z"/>
		<path d="M28.6183,20.9551c-1.5474,0-2.8423,1.2236-2.8423,3.1904c0,2.0269,1.0791,2.9624,2.6865,2.9624
			c1.5229,0,2.8423-1.2114,2.8423-3.1782C31.3048,21.9868,30.1896,20.9551,28.6183,20.9551z M28.5465,25.9565
			c-0.8516,0-1.4272-0.5156-1.4272-1.8828c0-1.2236,0.5996-1.9673,1.415-1.9673c0.8755,0,1.4272,0.5879,1.4272,1.8472
			C29.9615,25.2368,29.3497,25.9565,28.5465,25.9565z"/>
		<path d="M32.088,21.3872v1.0552c0.5518-0.0957,0.9712-0.1318,1.5352-0.1318V27h1.355v-5.9365h-0.7554
			C33.5392,21.0635,32.8195,21.1714,32.088,21.3872z"/>
		<path d="M39.61,20.9551c-1.5474,0-2.8423,1.2236-2.8423,3.1904c0,2.0269,1.0791,2.9624,2.6865,2.9624
			c1.5229,0,2.8423-1.2114,2.8423-3.1782C42.2965,21.9868,41.1813,20.9551,39.61,20.9551z M39.5382,25.9565
			c-0.8516,0-1.4272-0.5156-1.4272-1.8828c0-1.2236,0.5996-1.9673,1.415-1.9673c0.8755,0,1.4272,0.5879,1.4272,1.8472
			C40.9532,25.2368,40.3414,25.9565,39.5382,25.9565z"/>
		<path d="M21.1803,32.1455c0,2.0269,1.0791,2.9624,2.6865,2.9624c1.5229,0,2.8423-1.2114,2.8423-3.1782
			c0-1.9429-1.1152-2.9746-2.6865-2.9746C22.4752,28.9551,21.1803,30.1787,21.1803,32.1455z M25.3658,31.9536
			c0,1.2832-0.6118,2.0029-1.415,2.0029c-0.8516,0-1.4272-0.5156-1.4272-1.8828c0-1.2236,0.5996-1.9673,1.415-1.9673
			C24.8141,30.1064,25.3658,30.6943,25.3658,31.9536z"/>
		<path d="M30.3824,35v-5.9365h-0.7554c-0.6836,0-1.4033,0.1079-2.1348,0.3237v1.0552c0.5518-0.0957,0.9712-0.1318,1.5352-0.1318V35
			H30.3824z"/>
		<path d="M32.172,32.1455c0,2.0269,1.0791,2.9624,2.6865,2.9624c1.5229,0,2.8423-1.2114,2.8423-3.1782
			c0-1.9429-1.1152-2.9746-2.6865-2.9746C33.4669,28.9551,32.172,30.1787,32.172,32.1455z M36.3575,31.9536
			c0,1.2832-0.6118,2.0029-1.415,2.0029c-0.8516,0-1.4272-0.5156-1.4272-1.8828c0-1.2236,0.5996-1.9673,1.415-1.9673
			C35.8058,30.1064,36.3575,30.6943,36.3575,31.9536z"/>
		<path d="M41.3741,35v-5.9365h-0.7554c-0.6836,0-1.4033,0.1079-2.1348,0.3237v1.0552c0.5518-0.0957,0.9712-0.1318,1.5352-0.1318V35
			H41.3741z"/>
		<path d="M21.0963,38.4424c0.5518-0.0957,0.9712-0.1318,1.5352-0.1318V43h1.355v-5.9365h-0.7554
			c-0.6836,0-1.4033,0.1079-2.1348,0.3237V38.4424z"/>
		<path d="M25.776,40.1455c0,2.0269,1.0791,2.9624,2.6865,2.9624c1.5229,0,2.8423-1.2114,2.8423-3.1782
			c0-1.9429-1.1152-2.9746-2.6865-2.9746C27.0709,36.9551,25.776,38.1787,25.776,40.1455z M28.5343,38.1064
			c0.8755,0,1.4272,0.5879,1.4272,1.8472c0,1.2832-0.6118,2.0029-1.415,2.0029c-0.8516,0-1.4272-0.5156-1.4272-1.8828
			C27.1193,38.8501,27.7189,38.1064,28.5343,38.1064z"/>
		<path d="M32.088,38.4424c0.5518-0.0957,0.9712-0.1318,1.5352-0.1318V43h1.355v-5.9365h-0.7554
			c-0.6836,0-1.4033,0.1079-2.1348,0.3237V38.4424z"/>
		<path d="M36.7677,40.1455c0,2.0269,1.0791,2.9624,2.6865,2.9624c1.5229,0,2.8423-1.2114,2.8423-3.1782
			c0-1.9429-1.1152-2.9746-2.6865-2.9746C38.0626,36.9551,36.7677,38.1787,36.7677,40.1455z M39.526,38.1064
			c0.8755,0,1.4272,0.5879,1.4272,1.8472c0,1.2832-0.6118,2.0029-1.415,2.0029c-0.8516,0-1.4272-0.5156-1.4272-1.8828
			C38.111,38.8501,38.7106,38.1064,39.526,38.1064z"/>
		<path d="M51.4601,38.4077C48.7617,46.58,41.0648,52.5,32,52.5c-10.6876,0-19.798-8.2983-20.4393-19.3011
			c0.0485-0.0458,0.1397-0.0444,0.2493,0.132c0.1625,0.2618,1.0245,2.6849,1.0757,2.8292l2.7529,1.6225
			c0.6578,0.3889,1.4984,0.2437,1.9912-0.3378c0.493-0.5833,0.4936-1.4366,0.0012-2.0199l-6.8933-8.1824
			c-0.3062-0.364-0.7618-0.569-1.2377-0.5567c-0.4759-0.0123-0.9315,0.1927-1.2377,0.5567L1.369,35.425
			c-0.4924,0.5833-0.4919,1.4366,0.0012,2.0199c0.4929,0.5815,1.3334,0.7266,1.9912,0.3378l3.4189-2.015
			C8.6071,48.0479,19.2195,57.5,32,57.5c11.4647,0,21.1843-7.6064,24.3833-18.0369C54.9115,40.3595,53.0151,40.2537,51.4601,38.4077
			z"/>
		<path d="M62.6299,27.2405c-0.4929-0.5815-1.3334-0.7267-1.9912-0.3378l-3.3377,1.9671C55.7521,16.2815,45.0002,6.5,32,6.5
			c-11.7655,0-21.6907,8.0119-24.619,18.8649c1.4092-1.0162,3.5554-0.9909,4.9971,0.7207C14.9236,17.6576,22.7528,11.5,32,11.5
			c11.0598,0,20.1918,8.8326,20.4737,19.9804c-0.047,0.0536-0.1432,0.0607-0.2535-0.131c-0.1353-0.2352-0.7562-2.1653-0.9344-2.7232
			l-2.9244-1.7236c-0.6578-0.3889-1.4984-0.2437-1.9912,0.3378c-0.493,0.5833-0.4936,1.4366-0.0012,2.0199l6.8933,8.1824
			c0.3062,0.364,0.7618,0.569,1.2377,0.5568c0.4759,0.0123,0.9315-0.1928,1.2377-0.5568l6.8933-8.1824
			C63.1235,28.6771,63.1229,27.8238,62.6299,27.2405z"/>
	</g>
</g>
</svg>
